X: 17
T:Merrily Kiss the Quaker's Wife
M:12/8
L:1/8
R:Slide
K:G
D | GAB D2 B c2 A BGE | GAB DEG A2 A AGE |
GAB D2 B c2 A BGE | GAB D2 E (G3 G2) :|| A
BGG AGG BGG AGE | GAB DEG A3 AGA |
BGG AGG BGG AGE | GAB D2 E (G3 G2) :|| d |
gfg aga bge dBd | gfg gab agf fga |
 gag fgf efe dBA | GAB D2 E (G3 G2) :||
